assets/icons/Snack.svg

<?xml version="1.0" encoding="UTF-8" standalone="no"?>
<svg
   width="24"
   height="24"
   viewBox="0 0 24 24"
   fill="none"
   version="1.1"
   id="svg3"
   xmlns="http://www.w3.org/2000/svg"
   xmlns:svg="http://www.w3.org/2000/svg">
  <defs
     id="defs1" />
  <g
     transform="matrix(1.2994893,0,0,1.2500104,-2.9141768,-1.759391)"
     id="g1">
    <!-- Shifted 0.5px right and 1px down to center better -->
    <path
       transform="scale(0.95)"
       style="baseline-shift:baseline;display:inline;overflow:visible;opacity:0.4;vector-effect:none;fill:#27ae60;fill-opacity:1;stroke-linejoin:round;enable-background:accumulate;stop-color:#000000"
       d="m 6.47368,10.3158 c 0.3361,-0.84025 1.00187,-1.50602 1.84211,-1.84211 2.36501,-0.94602 5.00341,-0.94602 7.36841,0 0.8402,0.33609 1.506,1.00186 1.8421,1.84211 0.946,2.365 0.946,5.0034 0,7.3684 -0.3361,0.8402 -1.0019,1.506 -1.8421,1.8421 -2.365,0.946 -5.0034,0.946 -7.36841,0 -0.84024,-0.3361 -1.50601,-1.0019 -1.84211,-1.8421 -0.94601,-2.365 -0.94601,-5.0034 0,-7.3684 z"
       id="path4" />
    <path
       transform="scale(0.95)"
       id="path5"
       style="baseline-shift:baseline;display:inline;overflow:visible;vector-effect:none;fill:#27ae60;fill-opacity:1;stroke:none;stroke-linejoin:round;enable-background:accumulate;stop-color:#000000"
       d="M 8.1289062,2 C 8.0089663,2 7.9489375,2.0007194 7.8984375,2.0058594 7.4262475,2.0539194 7.0539194,2.4262475 7.0058594,2.8984375 7.0007194,2.9489375 7,3.0089662 7,3.1289062 V 3.5859375 C 7,4.4914375 7.35971,5.35971 8,6 8.5224301,6.5224301 9.1975249,6.8589818 9.9199219,6.9648438 9.2497162,7.095056 8.5880315,7.2878299 7.9453125,7.5449219 6.8513831,7.9824858 5.9824945,8.8513811 5.5449219,9.9453125 c -1.0412586,2.6031185 -1.0412586,5.5062565 0,8.1093755 0.4375751,1.093872 1.3064503,1.962809 2.4003906,2.40039 2.6031255,1.041246 5.5062585,1.041247 8.1093755,0 1.093892,-0.437583 1.962807,-1.306498 2.40039,-2.40039 1.041247,-2.603118 1.041247,-5.506258 0,-8.1093755 C 18.017498,8.851362 17.148568,7.9824872 16.054688,7.5449219 15.096439,7.1616144 14.097569,6.9195492 13.087891,6.8183594 13.293798,5.6476383 13.854821,4.5592286 14.707031,3.7070312 L 13.292969,2.2929688 C 12.691082,2.8948455 12.197392,3.5843614 11.824219,4.3320312 11.658046,3.8346277 11.377807,3.3778012 11,3 10.3597,2.35971 9.4914375,2 8.5859375,2 Z M 12,8.7636719 c 1.124683,0 2.24906,0.2132868 3.3125,0.6386719 0.586519,0.2346146 1.050536,0.6986062 1.285156,1.2851562 0.850753,2.126883 0.850753,4.498117 0,6.625 -0.234617,0.586508 -0.698648,1.050539 -1.285156,1.285156 -2.126883,0.850753 -4.498106,0.850754 -6.625,0 C 8.1009603,18.363038 7.6369688,17.899027 7.4023438,17.3125 c -0.8507614,-2.126881 -0.8507614,-4.498119 0,-6.625 C 7.6369712,10.100931 8.1009494,9.6369597 8.6875,9.4023438 9.7509456,8.9769582 10.875317,8.7636719 12,8.7636719 Z" />
  </g>
</svg>

<svg
   width="24"
   height="24"
   viewBox="0 0 24 24"
   fill="none"
   version="1.1"
   id="svg3"
   xmlns="http://www.w3.org/2000/svg"
   xmlns:svg="http://www.w3.org/2000/svg">
  <g transform="translate(0.5, 1)"> <!-- Shifted 0.5px right and 1px down to center better -->
    <path
       transform="scale(0.95)" 
       style="baseline-shift:baseline;display:inline;overflow:visible;vector-effect:none;fill:#27AE60;stroke-linejoin:round;enable-background:accumulate;stop-color:#000000;fill-opacity:1;opacity:0.4"
       d="m 6.47368,10.3158 c 0.3361,-0.84025 1.00187,-1.50602 1.84211,-1.84211 2.36501,-0.94602 5.00341,-0.94602 7.36841,0 0.8402,0.33609 1.506,1.00186 1.8421,1.84211 0.946,2.365 0.946,5.0034 0,7.3684 -0.3361,0.8402 -1.0019,1.506 -1.8421,1.8421 -2.365,0.946 -5.0034,0.946 -7.36841,0 -0.84024,-0.3361 -1.50601,-1.0019 -1.84211,-1.8421 -0.94601,-2.365 -0.94601,-5.0034 0,-7.3684 z"
       id="path4" />
    <path
       transform="scale(0.95)"
       id="path5"
       style="baseline-shift:baseline;display:inline;overflow:visible;vector-effect:none;fill:#27AE60;stroke-linejoin:round;enable-background:accumulate;stop-color:#000000;fill-opacity:1;stroke:none"
       d="M 8.1289062 2 C 8.0089663 2 7.9489375 2.0007194 7.8984375 2.0058594 C 7.4262475 2.0539194 7.0539194 2.4262475 7.0058594 2.8984375 C 7.0007194 2.9489375 7 3.0089662 7 3.1289062 L 7 3.5859375 C 7 4.4914375 7.35971 5.35971 8 6 C 8.5224301 6.5224301 9.1975249 6.8589818 9.9199219 6.9648438 C 9.2497162 7.095056 8.5880315 7.2878299 7.9453125 7.5449219 C 6.8513831 7.9824858 5.9824945 8.8513811 5.5449219 9.9453125 C 4.5036633 12.548431 4.5036633 15.451569 5.5449219 18.054688 C 5.982497 19.14856 6.8513722 20.017497 7.9453125 20.455078 C 10.548438 21.496324 13.451571 21.496325 16.054688 20.455078 C 17.14858 20.017495 18.017495 19.14858 18.455078 18.054688 C 19.496325 15.45157 19.496325 12.54843 18.455078 9.9453125 C 18.017498 8.851362 17.148568 7.9824872 16.054688 7.5449219 C 15.096439 7.1616144 14.097569 6.9195492 13.087891 6.8183594 C 13.293798 5.6476383 13.854821 4.5592286 14.707031 3.7070312 L 13.292969 2.2929688 C 12.691082 2.8948455 12.197392 3.5843614 11.824219 4.3320312 C 11.658046 3.8346277 11.377807 3.3778012 11 3 C 10.3597 2.35971 9.4914375 2 8.5859375 2 L 8.1289062 2 z M 12 8.7636719 C 13.124683 8.7636719 14.24906 8.9769587 15.3125 9.4023438 C 15.899019 9.6369584 16.363036 10.10095 16.597656 10.6875 C 17.448409 12.814383 17.448409 15.185617 16.597656 17.3125 C 16.363039 17.899008 15.899008 18.363039 15.3125 18.597656 C 13.185617 19.448409 10.814394 19.44841 8.6875 18.597656 C 8.1009603 18.363038 7.6369688 17.899027 7.4023438 17.3125 C 6.5515824 15.185619 6.5515824 12.814381 7.4023438 10.6875 C 7.6369712 10.100931 8.1009494 9.6369597 8.6875 9.4023438 C 9.7509456 8.9769582 10.875317 8.7636719 12 8.7636719 z " />
  </g>
</svg>
